icons/numix/32x32/mimetypes/application-database.svg

<?xml version="1.0" encoding="UTF-8" standalone="no"?>
<svg
   xmlns:dc="http://purl.org/dc/elements/1.1/"
   xmlns:cc="http://creativecommons.org/ns#"
   xmlns:rdf="http://www.w3.org/1999/02/22-rdf-syntax-ns#"
   xmlns:svg="http://www.w3.org/2000/svg"
   xmlns="http://www.w3.org/2000/svg"
   xmlns:sodipodi="http://sodipodi.sourceforge.net/DTD/sodipodi-0.dtd"
   xmlns:inkscape="http://www.inkscape.org/namespaces/inkscape"
   width="32"
   height="32"
   viewBox="0 0 32 32"
   id="svg2"
   version="1.1"
   inkscape:version="0.48.5 r10040"
   sodipodi:docname="application-database.svg">
  <metadata
     id="metadata22">
    <rdf:RDF>
      <cc:Work
         rdf:about="">
        <dc:format>image/svg+xml</dc:format>
        <dc:type
           rdf:resource="http://purl.org/dc/dcmitype/StillImage" />
      </cc:Work>
    </rdf:RDF>
  </metadata>
  <defs
     id="defs20" />
  <sodipodi:namedview
     pagecolor="#ffffff"
     bordercolor="#666666"
     borderopacity="1"
     objecttolerance="10"
     gridtolerance="10"
     guidetolerance="10"
     inkscape:pageopacity="0"
     inkscape:pageshadow="2"
     inkscape:window-width="1280"
     inkscape:window-height="970"
     id="namedview18"
     showgrid="true"
     inkscape:zoom="14.75"
     inkscape:cx="27.262411"
     inkscape:cy="19.884773"
     inkscape:window-x="0"
     inkscape:window-y="0"
     inkscape:window-maximized="1"
     inkscape:current-layer="svg2">
    <inkscape:grid
       type="xygrid"
       id="grid3010" />
  </sodipodi:namedview>
  <path
     style="fill:#a33639;fill-opacity:1"
     d="M 5.335888,2.97e-4 C 4.648414,3.12e-4 4,0.676788 4,1.3940313 L 4,30.606268 C 4,31.282757 4.687474,32 5.335888,32 l 21.327332,0 c 0.648414,0 1.335888,-0.717243 1.335888,-1.393732 L 28,8.9999998 19,0 z"
     id="path4-1"
     inkscape:connector-curvature="0"
     sodipodi:nodetypes="ssssssccs" />
  <path
     style="fill:#000000;fill-opacity:0.19599998"
     d="M 21,8.9999998 28,16 28,8.9999998 z"
     id="path6-4"
     inkscape:connector-curvature="0"
     sodipodi:nodetypes="cccc" />
  <path
     style="fill:#ffffff;fill-opacity:0.39200003"
     d="m 19.000306,2.97e-4 8.991594,8.9997028 -7.613262,0 c -0.672951,0 -1.378332,-0.7134896 -1.378332,-1.3864402 z"
     id="path8-6"
     inkscape:connector-curvature="0"
     sodipodi:nodetypes="ccssc" />
  <g
     style="fill:#ffffff"
     id="g10"
     transform="matrix(1.1252748,0,0,1.1252748,-2.0043964,-1.5076938)">
    <path
       d="m 16,12 c -2.945312,0 -5.332031,0.746094 -5.332031,1.667969 l 0,1.332031 c 0,0.921875 2.386719,1.667969 5.332031,1.667969 2.945312,0 5.332031,-0.746094 5.332031,-1.667969 l 0,-1.332031 C 21.332031,12.746094 18.945312,12 16,12 z"
       id="path12"
       inkscape:connector-curvature="0" />
    <path
       d="m 15.984375,17.332031 c -2.390625,0 -4.402344,-0.488281 -5.082031,-1.164062 -0.160156,0.15625 -0.234375,0.324219 -0.234375,0.5 l 0,1.332031 c 0,0.921875 2.386719,1.667969 5.332031,1.667969 2.945312,0 5.332031,-0.746094 5.332031,-1.667969 l 0,-1.332031 c 0,-0.175781 -0.09375,-0.34375 -0.25,-0.5 -0.679687,0.675781 -2.710937,1.164062 -5.097656,1.164062 z"
       id="path14"
       inkscape:connector-curvature="0" />
    <path
       d="m 15.984375,20.332031 c -2.390625,0 -4.402344,-0.488281 -5.082031,-1.164062 -0.160156,0.15625 -0.234375,0.324219 -0.234375,0.5 l 0,1.332031 c 0,0.921875 2.386719,1.667969 5.332031,1.667969 2.945312,0 5.332031,-0.746094 5.332031,-1.667969 l 0,-1.332031 c 0,-0.175781 -0.09375,-0.34375 -0.25,-0.5 -0.679687,0.675781 -2.710937,1.164062 -5.097656,1.164062 z"
       id="path16"
       inkscape:connector-curvature="0" />
  </g>
</svg>

<svg width="32" xmlns="http://www.w3.org/2000/svg" height="32" viewBox="0 0 32 32" xmlns:xlink="http://www.w3.org/1999/xlink">
<path style="fill:#a33639" d="M 5.332031 0.667969 C 4.648438 0.667969 4 1.3125 4 2 L 4 30 C 4 30.648438 4.6875 31.332031 5.332031 31.332031 L 26.667969 31.332031 C 27.3125 31.332031 28 30.648438 28 30 L 28 9.332031 L 19.332031 0.667969 Z "/>
<path style="fill:#000;fill-opacity:.196" d="M 19.332031 8 L 19.375 8.042969 L 19.480469 8 Z M 20.667969 9.332031 L 28 16.667969 L 28 9.332031 Z "/>
<path style="fill:#fff;fill-opacity:.392" d="M 19.332031 0.667969 L 28 9.332031 L 20.667969 9.332031 C 20.019531 9.332031 19.332031 8.648438 19.332031 8 Z "/>
<g style="fill:#fff">
<path d="M 16 12 C 13.054688 12 10.667969 12.746094 10.667969 13.667969 L 10.667969 15 C 10.667969 15.921875 13.054688 16.667969 16 16.667969 C 18.945312 16.667969 21.332031 15.921875 21.332031 15 L 21.332031 13.667969 C 21.332031 12.746094 18.945312 12 16 12 Z "/>
<path d="M 15.984375 17.332031 C 13.59375 17.332031 11.582031 16.84375 10.902344 16.167969 C 10.742188 16.324219 10.667969 16.492188 10.667969 16.667969 L 10.667969 18 C 10.667969 18.921875 13.054688 19.667969 16 19.667969 C 18.945312 19.667969 21.332031 18.921875 21.332031 18 L 21.332031 16.667969 C 21.332031 16.492188 21.238281 16.324219 21.082031 16.167969 C 20.402344 16.84375 18.371094 17.332031 15.984375 17.332031 Z "/>
<path d="M 15.984375 20.332031 C 13.59375 20.332031 11.582031 19.84375 10.902344 19.167969 C 10.742188 19.324219 10.667969 19.492188 10.667969 19.667969 L 10.667969 21 C 10.667969 21.921875 13.054688 22.667969 16 22.667969 C 18.945312 22.667969 21.332031 21.921875 21.332031 21 L 21.332031 19.667969 C 21.332031 19.492188 21.238281 19.324219 21.082031 19.167969 C 20.402344 19.84375 18.371094 20.332031 15.984375 20.332031 Z "/>
</g>
</svg>
